X:76
T:O'Dowd's Pitch
C:Ed Yother
C:http://edyother.com
K:Gdor
R:Reel
M:C|
BAGB AGFD | CD D2 EDCD | FEDG FDCF | DCA,D CA,G,2 |
BAGB AGFA | c2 cA GAdA | BAGd cAGB | AGFD CA,G,2 :|
|: BAGd cAGB | AGFA cAFA | BAGd cAGB | AGFD CDFA |
BAGd cAGB | AGFA cAFA | B2 Bc BAGA | BAGF DFGA :||

